svgs/light/arrow-up-wide-short.svg

<svg xmlns="http://www.w3.org/2000/svg" viewBox="0 0 576 512"><!--! Font Awesome Pro 6.0.0-alpha3 by @fontawesome - https://fontawesome.com License - https://fontawesome.com/license (Commercial License) --><path d="M368 432h-64c-8.844 0-15.1 7.156-15.1 16S295.2 464 304 464h64c8.844 0 16-7.156 16-16S376.8 432 368 432zM432 304h-128c-8.844 0-15.1 7.156-15.1 16S295.2 336 304 336h128c8.844 0 16-7.156 16-16S440.8 304 432 304zM560 48h-256c-8.844 0-15.1 7.156-15.1 16S295.2 80 304 80h256C568.8 80 576 72.84 576 64S568.8 48 560 48zM496 176h-192c-8.844 0-15.1 7.156-15.1 16S295.2 208 304 208h192C504.8 208 512 200.8 512 192S504.8 176 496 176zM139.3 36.69c-6.25-6.25-16.38-6.25-22.62 0l-96 96c-6.25 6.25-6.25 16.38 0 22.62s16.38 6.25 22.62 0L112 86.63V464c0 8.844 7.157 16 16 16S144 472.8 144 464V86.63l68.69 68.69C215.8 158.4 219.9 160 224 160s8.188-1.562 11.31-4.688c6.25-6.25 6.25-16.38 0-22.62L139.3 36.69z"/></svg>

<svg xmlns="http://www.w3.org/2000/svg" viewBox="0 0 576 512"><!--! Font Awesome Pro 6.4.2 by @fontawesome - https://fontawesome.com License - https://fontawesome.com/license (Commercial License) Copyright 2023 Fonticons, Inc. --><path d="M139.3 36.7c-6.2-6.2-16.4-6.2-22.6 0l-96 96c-6.2 6.2-6.2 16.4 0 22.6s16.4 6.2 22.6 0L112 86.6V464c0 8.8 7.2 16 16 16s16-7.2 16-16V86.6l68.7 68.7c6.2 6.2 16.4 6.2 22.6 0s6.2-16.4 0-22.6l-96-96zM304 464h64c8.8 0 16-7.2 16-16s-7.2-16-16-16H304c-8.8 0-16 7.2-16 16s7.2 16 16 16zm0-128H432c8.8 0 16-7.2 16-16s-7.2-16-16-16H304c-8.8 0-16 7.2-16 16s7.2 16 16 16zm0-128H496c8.8 0 16-7.2 16-16s-7.2-16-16-16H304c-8.8 0-16 7.2-16 16s7.2 16 16 16zm0-128H560c8.8 0 16-7.2 16-16s-7.2-16-16-16H304c-8.8 0-16 7.2-16 16s7.2 16 16 16z"/></svg>
